X: 1
T: Far From Home
Z: 1997 by John Chambers <jc:trillian.mit.edu>
B: O’Neill’s Dance Music of Ireland, 1903, p.237 #1261
R: reel
M: C|
L: 1/8
K: A
|:   "A"AFEF      A3B  |     c2cB     cde2 |\
[1,3 "A"AFEF "F#m"A3c  | "Bm"B2Bc "E7"BAFE :|\
[2,4 "D"fefg "(A)"afed | "E7"cABG  "A"A4   :|
|: "F#m"a2af   "E"g2ge |  "D"f2fg  "A"fec2 \
|       afec "F#m"A2Ac | "Bm"B2Bc "E7"BAFE |
|    "A"AFEF      A3B  |     c2cB     cde2 \
|    "D"fefg "(A)"afed | "E7"cABG  "A"A4   :|

